src/main/resources/icons/AllIcons/vcs/patch.svg

<svg xmlns="http://www.w3.org/2000/svg" width="16" height="16" viewBox="0 0 16 16"><rect id="frame" width="16" height="16" fill="none"/><path fill="#6E6E6E" fill-rule="evenodd" d="M3 6h5V1h5v14H3V6zm3 3H4v1h2v2h1v-2h2V9H7V7H6v2zm-2 4v1h5v-1H4zM7 1v4H3l4-4z"/></svg>

<!-- Copyright 2000-2021 JetBrains s.r.o. Use of this source code is governed by the Apache 2.0 license that can be found in the LICENSE file. -->
<svg xmlns="http://www.w3.org/2000/svg" width="16" height="16" viewBox="0 0 16 16">
  <path fill="#6E6E6E" fill-rule="evenodd" d="M3,6 L8,6 L8,1 L13,1 L13,15 L3,15 L3,6 Z M6,9 L4,9 L4,10 L6,10 L6,12 L7,12 L7,10 L9,10 L9,9 L7,9 L7,7 L6,7 L6,9 Z M4,13 L4,14 L9,14 L9,13 L4,13 Z M7,1 L7,5 L3,5 L7,1 Z"/>
</svg>
